src/assets/images/illustrations/app-modal-alert-naming-light.svg

<?xml version="1.0" encoding="UTF-8" standalone="no"?>
<svg
   width="551"
   height="357.21332"
   viewBox="0 0 551 357.21332"
   fill="none"
   version="1.1"
   id="svg47"
   sodipodi:docname="app-modal-alert-naming-light.svg"
   inkscape:version="1.2.2 (b0a8486541, 2022-12-01)"
   xmlns:inkscape="http://www.inkscape.org/namespaces/inkscape"
   xmlns:sodipodi="http://sodipodi.sourceforge.net/DTD/sodipodi-0.dtd"
   xmlns="http://www.w3.org/2000/svg"
   xmlns:svg="http://www.w3.org/2000/svg">
  <sodipodi:namedview
     id="namedview49"
     pagecolor="#ffffff"
     bordercolor="#000000"
     borderopacity="0.25"
     inkscape:showpageshadow="2"
     inkscape:pageopacity="0.0"
     inkscape:pagecheckerboard="0"
     inkscape:deskcolor="#d1d1d1"
     showgrid="false"
     inkscape:zoom="0.70089286"
     inkscape:cx="153.3758"
     inkscape:cy="304.61146"
     inkscape:window-width="1920"
     inkscape:window-height="1011"
     inkscape:window-x="0"
     inkscape:window-y="0"
     inkscape:window-maximized="1"
     inkscape:current-layer="svg47" />
  <g
     clip-path="url(#clip0_7653_68209)"
     id="g40"
     transform="matrix(5.1035532,0,0,5.1035532,0,-0.0348876)">
    <path
       d="m 98.4742,69.793 -3.0836,-9.3055 c 0,0 3.3918,3.3917 3.3918,6.1747 l -0.6088,-6.4356 c 0,0 1.7393,2.3481 1.5654,5.9137 -0.1739,3.5657 -1.2648,3.6527 -1.2648,3.6527 z"
       fill="#e6e6e6"
       id="path2" />
    <path
       d="M 32.2555,61.3198 29.2461,52.238 c 0,0 3.3102,3.3102 3.3102,6.0263 l -0.5941,-6.2809 c 0,0 1.6975,2.2917 1.5277,5.7716 -0.1697,3.48 -1.2344,3.5648 -1.2344,3.5648 z"
       fill="#e6e6e6"
       id="path4" />
    <path
       d="m 79.2263,65.5108 c 0.0051,5.9742 -11.8439,4.1365 -26.35,4.1491 -14.506,0.0125 -26.1758,1.8704 -26.181,-4.1038 -0.0051,-5.9742 11.8396,-7.2837 26.3456,-7.2962 14.506,-0.0126 26.1802,1.2767 26.1854,7.2509 z"
       fill="#e6e6e6"
       id="path6" />
    <path
       d="M 107.964,69.6562 H 0 v 0.2734 h 107.964 z"
       fill="#3f3d56"
       id="path8" />
    <path
       d="m 69.0607,57.4426 h -1.8965 l -0.9025,-7.3149 h 2.799 z"
       fill="#a0616a"
       id="path10" />
    <path
       d="m 65.6,56.9006 h 3.8682 v 2.3029 h -5.9604 v -0.2107 c 0,-0.5549 0.2204,-1.087 0.6128,-1.4794 0.3924,-0.3923 0.9245,-0.6128 1.4794,-0.6128 z"
       fill="#2f2e41"
       id="path12" />
    <path
       d="m 83.0002,68.239 h -1.8965 l -0.9025,-7.3149 h 2.799 z"
       fill="#a0616a"
       id="path14" />
    <path
       d="m 79.5395,67.697 h 3.8681 v 2.3029 h -5.9603 v -0.2107 c 0,-0.5549 0.2204,-1.087 0.6128,-1.4794 0.3923,-0.3924 0.9245,-0.6128 1.4794,-0.6128 z"
       fill="#2f2e41"
       id="path16" />
    <path
       d="m 91.7476,46.5078 c 0.1311,-0.159 0.2258,-0.3448 0.2773,-0.5444 0.0515,-0.1995 0.0587,-0.408 0.021,-0.6106 -0.0378,-0.2026 -0.1195,-0.3945 -0.2394,-0.5621 -0.1199,-0.1677 -0.2751,-0.3069 -0.4547,-0.4081 l -4.4046,-17.9429 -2.8163,1.2117 5.239,17.3493 c -0.15,0.3129 -0.1799,0.67 -0.0842,1.0035 0.0958,0.3335 0.3105,0.6204 0.6036,0.8062 0.2931,0.1857 0.6441,0.2575 0.9866,0.2018 0.3425,-0.0558 0.6527,-0.2352 0.8717,-0.5044 z"
       fill="#a0616a"
       id="path18" />
    <path
       d="M 88.3128,10.2447 C 88.1556,10.0804 87.9643,9.95249 87.7523,9.8701 87.5403,9.7877 87.3129,9.75278 87.086,9.7678 86.8591,9.78282 86.6382,9.8474 86.439,9.957 c -0.1993,0.1096 -0.3721,0.2616 -0.5063,0.4452 l -6.8175,0.7827 1.0371,2.6296 6.2001,-1.1604 c 0.3234,0.2049 0.7108,0.2841 1.0887,0.2226 0.3778,-0.0616 0.72,-0.2596 0.9617,-0.5566 0.2416,-0.297 0.3659,-0.6723 0.3493,-1.0548 -0.0166,-0.3825 -0.1729,-0.7457 -0.4393,-1.0206 z"
       fill="#a0616a"
       id="path20" />
    <path
       d="m 77.0781,44.6469 2.9749,22.3272 3.7027,-0.7623 c 0,0 -0.5445,-16.2604 1.3068,-18.2206 1.8514,-1.9603 -2.3812,-5.3943 -2.3812,-5.3943 z"
       fill="#2f2e41"
       id="path22" />
    <path
       d="m 78.3079,38.497 -1.3666,2.05 c 0,0 -10.5231,-4.3731 -10.5231,2.5966 0,6.9697 -0.6022,11.6996 -0.82,12.0263 -0.2178,0.3267 2.5197,1.1745 3.8266,0.9567 0,0 1.6122,-11.2363 1.5033,-11.8897 0,0 10.3226,5.0611 12.2829,4.6255 1.9602,-0.4356 2.4233,-1.9777 2.75,-2.8489 0.3267,-0.8712 -0.1366,-7.7898 -0.1366,-7.7898 l -6.5339,-1.994 z"
       fill="#2f2e41"
       id="path24" />
    <path
       d="m 78.492,26.1892 -0.3895,-0.4675 c 0,0 -4.3628,-9.8163 -2.6488,-12.4651 1.7139,-2.6488 9.193,-3.0384 9.4267,-2.8825 0.2337,0.1558 -0.5582,2.1787 -0.0129,3.1136 0,0 -5.7937,1.2561 -6.1832,1.412 -0.3896,0.1558 3.0019,5.9139 3.0019,5.9139 l -0.3895,3.5058 z"
       fill="#cccccc"
       id="path26" />
    <path
       d="m 86.1279,21.3588 c 0,0 -4.0512,0.4675 -4.207,0.4675 -0.1558,0 -0.2337,-1.0128 -0.2337,-1.0128 l -3.5837,4.9081 c 0,0 -1.7656,14.2391 -1.2982,14.0054 0.4675,-0.2338 9.0889,1.1085 9.1668,0.4853 0.0779,-0.6233 -0.0779,-3.7395 0.1558,-3.8954 0.2337,-0.1558 4.0511,-9.8162 4.0511,-9.8162 0,0 -0.3895,-2.0256 -1.7139,-2.7268 -1.3244,-0.7011 -2.3372,-2.4151 -2.3372,-2.4151 z"
       fill="#cccccc"
       id="path28" />
    <path
       d="m 88.9314,25.1763 1.2465,1.3244 c 0,0 1.852,15.2188 0.8393,15.6862 -1.0128,0.4675 -3.0066,0.41 -3.0066,0.41 l -1.9618,-7.2148 z"
       fill="#cccccc"
       id="path30" />
    <path
       d="m 82.2343,20.3951 c 1.9804,0 3.5859,-1.6054 3.5859,-3.5858 0,-1.9805 -1.6055,-3.5859 -3.5859,-3.5859 -1.9804,0 -3.5859,1.6054 -3.5859,3.5859 0,1.9804 1.6055,3.5858 3.5859,3.5858 z"
       fill="#a0616a"
       id="path32" />
    <path
       d="m 81.3929,17.3689 c -0.0485,-0.7441 -0.9872,-0.7696 -1.7328,-0.7766 -0.7456,-0.0071 -1.637,0.0195 -2.0588,-0.5953 -0.2788,-0.4063 -0.2256,-0.9703 0.0047,-1.4059 0.2304,-0.4356 0.6093,-0.7707 0.982,-1.093 0.9623,-0.8321 1.9541,-1.6576 3.1094,-2.1902 1.1553,-0.5326 2.5092,-0.7479 3.7074,-0.3203 1.4718,0.5252 3.4615,3.2288 3.6334,4.7821 0.1718,1.5533 -0.449,3.1367 -1.4954,4.2975 -1.0464,1.1607 -3.4414,0.6924 -4.9487,1.1053 0.9163,-1.2969 0.3124,-3.6534 -1.1556,-4.259 z"
       fill="#2f2e41"
       id="path34" />
    <path
       d="m 49.4345,63.7525 c 4.7542,0 8.6083,-3.854 8.6083,-8.6083 0,-4.7542 -3.8541,-8.6083 -8.6083,-8.6083 -4.7542,0 -8.6083,3.8541 -8.6083,8.6083 0,4.7543 3.8541,8.6083 8.6083,8.6083 z"
       fill="#112a5c"
       id="path36" />
    <path
       d="m 43.6851,45.9243 c -1.193,10e-5 -2.3605,-0.3456 -3.3612,-0.9953 -1.0006,-0.6497 -1.7915,-1.5755 -2.2769,-2.6654 L 24.3872,11.5019 C 23.9348,10.4829 23.6954,9.38212 23.684,8.26724 23.6726,7.15237 23.8893,6.04693 24.3208,5.01889 c 0.4315,-1.02805 1.0687,-1.95698 1.8724,-2.72971 0.8038,-0.77273 1.757,-1.372921 2.8012,-1.763688 1.0442,-0.390767 2.1573,-0.5638519 3.2709,-0.5086146 1.1136,0.0552373 2.2041,0.3376296 3.2045,0.8298176 1.0004,0.492185 1.8896,1.183775 2.6129,2.032255 0.7233,0.84847 1.2654,1.8359 1.5931,2.90161 l 9.8913,32.17214 c 0.2832,0.9209 0.3465,1.8954 0.1847,2.8451 -0.1617,0.9498 -0.544,1.8484 -1.116,2.6236 -0.572,0.7753 -1.3179,1.4055 -2.1777,1.8402 -0.8598,0.4347 -1.8095,0.6617 -2.773,0.6627 z"
       fill="#112a5c"
       id="path38" />
  </g>
  <defs
     id="defs45">
    <clipPath
       id="clip0_7653_68209">
      <rect
         width="107.964"
         height="70"
         fill="#ffffff"
         id="rect42"
         x="0"
         y="0" />
    </clipPath>
  </defs>
</svg>

<svg width="108" height="70" viewBox="0 0 108 70" fill="none" xmlns="http://www.w3.org/2000/svg">
<g clip-path="url(#clip0_7653_68209)">
<path d="M98.4742 69.793L95.3906 60.4875C95.3906 60.4875 98.7824 63.8792 98.7824 66.6622L98.1736 60.2266C98.1736 60.2266 99.9129 62.5747 99.739 66.1403C99.5651 69.706 98.4742 69.793 98.4742 69.793Z" fill="#E6E6E6"/>
<path d="M32.2555 61.3198L29.2461 52.238C29.2461 52.238 32.5563 55.5482 32.5563 58.2643L31.9622 51.9834C31.9622 51.9834 33.6597 54.2751 33.4899 57.755C33.3202 61.235 32.2555 61.3198 32.2555 61.3198Z" fill="#E6E6E6"/>
<path d="M79.2263 65.5108C79.2314 71.485 67.3824 69.6473 52.8763 69.6599C38.3703 69.6724 26.7005 71.5303 26.6953 65.5561C26.6902 59.5819 38.5349 58.2724 53.0409 58.2599C67.5469 58.2473 79.2211 59.5366 79.2263 65.5108Z" fill="#E6E6E6"/>
<path d="M107.964 69.6562H0V69.9296H107.964V69.6562Z" fill="#3F3D56"/>
<path d="M69.0607 57.4426H67.1642L66.2617 50.1277H69.0607V57.4426Z" fill="#A0616A"/>
<path d="M65.6 56.9006H69.4682V59.2035H63.5078V58.9928C63.5078 58.4379 63.7282 57.9058 64.1206 57.5134C64.513 57.1211 65.0451 56.9006 65.6 56.9006Z" fill="#2F2E41"/>
<path d="M83.0002 68.239H81.1037L80.2012 60.9241H83.0002V68.239Z" fill="#A0616A"/>
<path d="M79.5395 67.697H83.4076V69.9999H77.4473V69.7892C77.4473 69.2343 77.6677 68.7022 78.0601 68.3098C78.4524 67.9174 78.9846 67.697 79.5395 67.697Z" fill="#2F2E41"/>
<path d="M91.7476 46.5078C91.8787 46.3488 91.9734 46.163 92.0249 45.9634C92.0764 45.7639 92.0836 45.5554 92.0459 45.3528C92.0081 45.1502 91.9264 44.9583 91.8065 44.7907C91.6866 44.623 91.5314 44.4838 91.3518 44.3826L86.9472 26.4397L84.1309 27.6514L89.3699 45.0007C89.2199 45.3136 89.19 45.6707 89.2857 46.0042C89.3815 46.3377 89.5962 46.6246 89.8893 46.8104C90.1824 46.9961 90.5334 47.0679 90.8759 47.0122C91.2184 46.9564 91.5286 46.777 91.7476 46.5078Z" fill="#A0616A"/>
<path d="M88.3128 10.2447C88.1556 10.0804 87.9643 9.95249 87.7523 9.8701C87.5403 9.7877 87.3129 9.75278 87.086 9.7678C86.8591 9.78282 86.6382 9.8474 86.439 9.957C86.2397 10.0666 86.0669 10.2186 85.9327 10.4022L79.1152 11.1849L80.1523 13.8145L86.3524 12.6541C86.6758 12.859 87.0632 12.9382 87.4411 12.8767C87.8189 12.8151 88.1611 12.6171 88.4028 12.3201C88.6444 12.0231 88.7687 11.6478 88.7521 11.2653C88.7355 10.8828 88.5792 10.5196 88.3128 10.2447Z" fill="#A0616A"/>
<path d="M77.0781 44.6469L80.053 66.9741L83.7557 66.2118C83.7557 66.2118 83.2112 49.9514 85.0625 47.9912C86.9139 46.0309 82.6813 42.5969 82.6813 42.5969L77.0781 44.6469Z" fill="#2F2E41"/>
<path d="M78.3079 38.497L76.9413 40.547C76.9413 40.547 66.4182 36.1739 66.4182 43.1436C66.4182 50.1133 65.816 54.8432 65.5982 55.1699C65.3804 55.4966 68.1179 56.3444 69.4248 56.1266C69.4248 56.1266 71.037 44.8903 70.9281 44.2369C70.9281 44.2369 81.2507 49.298 83.211 48.8624C85.1712 48.4268 85.6343 46.8847 85.961 46.0135C86.2877 45.1423 85.8244 38.2237 85.8244 38.2237L79.2905 36.2297L78.3079 38.497Z" fill="#2F2E41"/>
<path d="M78.492 26.1892L78.1025 25.7217C78.1025 25.7217 73.7397 15.9054 75.4537 13.2566C77.1676 10.6078 84.6467 10.2182 84.8804 10.3741C85.1141 10.5299 84.3222 12.5528 84.8675 13.4877C84.8675 13.4877 79.0738 14.7438 78.6843 14.8997C78.2947 15.0555 81.6862 20.8136 81.6862 20.8136L81.2967 24.3194L78.492 26.1892Z" fill="#CCCCCC"/>
<path d="M86.1279 21.3588C86.1279 21.3588 82.0767 21.8263 81.9209 21.8263C81.7651 21.8263 81.6872 20.8135 81.6872 20.8135L78.1035 25.7216C78.1035 25.7216 76.3379 39.9607 76.8053 39.727C77.2728 39.4932 85.8942 40.8355 85.9721 40.2123C86.05 39.589 85.8942 36.4728 86.1279 36.3169C86.3616 36.1611 90.179 26.5007 90.179 26.5007C90.179 26.5007 89.7895 24.4751 88.4651 23.7739C87.1407 23.0728 86.1279 21.3588 86.1279 21.3588Z" fill="#CCCCCC"/>
<path d="M88.9314 25.1763L90.1779 26.5007C90.1779 26.5007 92.0299 41.7195 91.0172 42.1869C90.0044 42.6544 88.0106 42.5969 88.0106 42.5969L86.0488 35.3821L88.9314 25.1763Z" fill="#CCCCCC"/>
<path d="M82.2343 20.3951C84.2147 20.3951 85.8202 18.7897 85.8202 16.8093C85.8202 14.8288 84.2147 13.2234 82.2343 13.2234C80.2539 13.2234 78.6484 14.8288 78.6484 16.8093C78.6484 18.7897 80.2539 20.3951 82.2343 20.3951Z" fill="#A0616A"/>
<path d="M81.3929 17.3689C81.3444 16.6248 80.4057 16.5993 79.6601 16.5923C78.9145 16.5852 78.0231 16.6118 77.6013 15.997C77.3225 15.5907 77.3757 15.0267 77.606 14.5911C77.8364 14.1555 78.2153 13.8204 78.588 13.4981C79.5503 12.666 80.5421 11.8405 81.6974 11.3079C82.8527 10.7753 84.2066 10.56 85.4048 10.9876C86.8766 11.5128 88.8663 14.2164 89.0382 15.7697C89.21 17.323 88.5892 18.9064 87.5428 20.0672C86.4964 21.2279 84.1014 20.7596 82.5941 21.1725C83.5104 19.8756 82.9065 17.5191 81.4385 16.9135L81.3929 17.3689Z" fill="#2F2E41"/>
<path d="M49.4345 63.7525C54.1887 63.7525 58.0428 59.8985 58.0428 55.1442C58.0428 50.39 54.1887 46.5359 49.4345 46.5359C44.6803 46.5359 40.8262 50.39 40.8262 55.1442C40.8262 59.8985 44.6803 63.7525 49.4345 63.7525Z" fill="#112A5C"/>
<path d="M43.6851 45.9243C42.4921 45.9244 41.3246 45.5787 40.3239 44.929C39.3233 44.2793 38.5324 43.3535 38.047 42.2636L24.3872 11.5019C23.9348 10.4829 23.6954 9.38212 23.684 8.26724C23.6726 7.15237 23.8893 6.04693 24.3208 5.01889C24.7523 3.99084 25.3895 3.06191 26.1932 2.28918C26.997 1.51645 27.9502 0.916259 28.9944 0.525492C30.0386 0.134725 31.1517 -0.0383599 32.2653 0.0168774C33.3789 0.0721147 34.4694 0.354507 35.4698 0.846695C36.4702 1.33888 37.3594 2.03047 38.0827 2.87895C38.806 3.72742 39.3481 4.71485 39.6758 5.78056L49.5671 37.9527C49.8503 38.8736 49.9136 39.8481 49.7518 40.7978C49.5901 41.7476 49.2078 42.6462 48.6358 43.4214C48.0638 44.1967 47.3179 44.8269 46.4581 45.2616C45.5983 45.6963 44.6486 45.9233 43.6851 45.9243Z" fill="#112A5C"/>
</g>
<defs>
<clipPath id="clip0_7653_68209">
<rect width="107.964" height="70" fill="white"/>
</clipPath>
</defs>
</svg>
